styles/5/Numix/32/places/purple-folder-download.svg

<?xml version="1.0" encoding="UTF-8" standalone="no"?>
<!-- Created with Inkscape (http://www.inkscape.org/) -->

<svg
   xmlns:dc="http://purl.org/dc/elements/1.1/"
   xmlns:cc="http://creativecommons.org/ns#"
   xmlns:rdf="http://www.w3.org/1999/02/22-rdf-syntax-ns#"
   xmlns:svg="http://www.w3.org/2000/svg"
   xmlns="http://www.w3.org/2000/svg"
   xmlns:xlink="http://www.w3.org/1999/xlink"
   xmlns:sodipodi="http://sodipodi.sourceforge.net/DTD/sodipodi-0.dtd"
   xmlns:inkscape="http://www.inkscape.org/namespaces/inkscape"
   width="32"
   height="32"
   id="svg2"
   version="1.1"
   inkscape:version="0.91 r"
   sodipodi:docname="purple-folder-download.svg">
  <defs
     id="defs4">
    <linearGradient
       id="linearGradient3886-9">
      <stop
         style="stop-color:#000000;stop-opacity:1;"
         offset="0"
         id="stop3888-3" />
      <stop
         style="stop-color:#000000;stop-opacity:0.19607843;"
         offset="1"
         id="stop3890-7" />
    </linearGradient>
    <radialGradient
       r="24"
       fy="40.5"
       fx="24"
       cy="40.5"
       cx="24"
       gradientTransform="matrix(0.83333334,0,0,0.13888885,-4,1041.4039)"
       gradientUnits="userSpaceOnUse"
       id="radialGradient3098"
       xlink:href="#linearGradient3886-9"
       inkscape:collect="always" />
  </defs>
  <sodipodi:namedview
     id="base"
     pagecolor="#ffffff"
     bordercolor="#666666"
     borderopacity="1.0"
     inkscape:pageopacity="0.0"
     inkscape:pageshadow="2"
     inkscape:zoom="11.313709"
     inkscape:cx="22.802245"
     inkscape:cy="20.167487"
     inkscape:document-units="px"
     inkscape:current-layer="layer1"
     showgrid="true"
     inkscape:window-width="1280"
     inkscape:window-height="998"
     inkscape:window-x="0"
     inkscape:window-y="0"
     inkscape:window-maximized="1">
    <inkscape:grid
       type="xygrid"
       id="grid2990"
       empspacing="5"
       visible="true"
       enabled="true"
       snapvisiblegridlinesonly="true" />
  </sodipodi:namedview>
  <metadata
     id="metadata7">
    <rdf:RDF>
      <cc:Work
         rdf:about="">
        <dc:format>image/svg+xml</dc:format>
        <dc:type
           rdf:resource="http://purl.org/dc/dcmitype/StillImage" />
        <dc:title />
      </cc:Work>
    </rdf:RDF>
  </metadata>
  <g
     inkscape:label="Body"
     inkscape:groupmode="layer"
     id="layer1"
     transform="translate(0,-1020.3622)">
    <path
       inkscape:connector-curvature="0"
       style="opacity:0.1;fill:url(#radialGradient3098);fill-opacity:1;stroke:none"
       d="m 16,1043.6955 c -6.5510326,0 -12.3519802,0.5221 -16,1.3334 l 0,4 c 3.6480198,0.8112 9.4489674,1.3333 16,1.3333 6.551033,0 12.35198,-0.5221 16,-1.3333 l 0,-4 c -3.64802,-0.8113 -9.448967,-1.3334 -16,-1.3334 z"
       id="path3868" />
    <rect
       style="fill:#512da8;fill-opacity:1;stroke:none"
       id="rect2987"
       width="30"
       height="20.999954"
       x="1"
       y="1027.3622"
       rx="3.2608695"
       ry="3.2812409" />
    <path
       style="opacity:0.2;fill:#ffffff;fill-opacity:1;stroke:none"
       d="M 4.2608696,1027.0289 C 2.4543478,1027.0289 1,1028.5155 1,1030.3622 l 0,1.3333 c 0,-1.8466 1.4543478,-3.3333 3.2608696,-3.3333 l 23.4782604,0 c 1.806522,0 3.26087,1.4867 3.26087,3.3333 l 0,-1.3333 c 0,-1.8467 -1.454348,-3.3333 -3.26087,-3.3333 l -23.4782604,0 z"
       id="rect3797"
       inkscape:connector-curvature="0" />
    <path
       style="fill:#7e57c2;fill-opacity:1;stroke:none"
       d="m 4.2608696,1032.3622 5.2173913,0 c 7.1739131,-0.6667 5.8695651,-8 10.4347821,-8 l 7.826087,0 c 1.806522,0 3.26087,1.4867 3.26087,3.3333 l 0,17.3334 c 0,1.8466 -1.454348,3.3333 -3.26087,3.3333 l -23.4782604,0 C 2.4543478,1048.3622 1,1046.8755 1,1045.0289 l 0,-9.3334 c 0,-2 1.3043478,-3.3333 3.2608696,-3.3333 z"
       id="rect3776"
       inkscape:connector-curvature="0"
       sodipodi:nodetypes="cccsssssscc" />
    <path
       style="opacity:0.15;fill:#000000;fill-opacity:1;stroke:none"
       d="m 1,1043.6955 0,1.3334 c 0,1.8466 1.4543478,3.3333 3.2608696,3.3333 l 23.4782604,0 c 1.806522,0 3.26087,-1.4867 3.26087,-3.3333 l 0,-1.3334 c 0,1.8467 -1.454348,3.6667 -3.26087,3.6667 l -23.4782604,0 C 2.4543478,1047.3622 1,1045.5422 1,1043.6955 z"
       id="path3786"
       inkscape:connector-curvature="0"
       sodipodi:nodetypes="csssscssc" />
    <path
       style="fill:#000000;fill-opacity:0.09803922;stroke:none"
       d="M 8.5 17 C 8.2231371 17 7.9999043 17.1003 8 17.8125 L 8 21 L 7 21 C 6.6250005 21 6.6250005 20.98855 7 21.46875 L 8.125 22.90625 C 8.4999994 23.38645 8.5000005 23.38645 8.875 22.90625 L 10 21.46875 C 10.375 20.98855 10.375 21 10 21 L 9 21 L 9 17.8125 C 9 17.1003 8.7768629 17 8.5 17 z M 12.5 21 C 12.223 21 12 21.223 12 21.5 L 12 24 L 5 24 L 5 22 C 5 21.723 4.7769996 21.5 4.5 21.5 C 4.2230004 21.5 4 21.723 4 22 L 4 24.5 C 4 24.6385 4.0545781 24.753375 4.15625 24.84375 C 4.2014374 24.888937 4.2526407 24.943516 4.3125 24.96875 C 4.3858259 24.999765 4.4756046 25 4.5625 25 L 12.4375 25 C 12.749125 25 13 24.777 13 24.5 C 13 24.400348 12.962336 24.327806 12.90625 24.25 C 12.956104 24.172194 13 24.099652 13 24 L 13 21.5 C 13 21.223 12.777 21 12.5 21 z "
       transform="translate(0,1020.3622)"
       id="rect3049" />
    <rect
       style="fill:#fff8e1;fill-opacity:1;stroke:none"
       id="rect2989"
       width="8.999999"
       height="0.99999857"
       x="4"
       y="1043.3622"
       rx="0.56249994"
       ry="0.49999928" />
    <rect
       ry="0.49999928"
       rx="0.49999928"
       y="-4.9999986"
       x="1040.8622"
       height="0.99999857"
       width="3.499995"
       id="rect2991-6"
       style="fill:#fff8e1;fill-opacity:1;stroke:none"
       transform="matrix(0,1,-1,0,0,0)" />
    <rect
       transform="matrix(0,1,-1,0,0,0)"
       style="fill:#fff8e1;fill-opacity:1;stroke:none"
       id="rect2993"
       width="3.499995"
       height="0.99999857"
       x="1040.3622"
       y="-13"
       rx="0.49999928"
       ry="0.49999928" />
    <path
       style="fill:#fff8e1;fill-opacity:1;stroke:none"
       d="m 8.8752469,1042.283 c -0.3749995,0.4802 -0.3749995,0.4802 -0.7499989,0 l -1.1249984,-1.4406 c -0.3749995,-0.4802 -0.3749995,-0.4802 0,-0.4802 l 2.9999954,0 c 0.375,0 0.375,0 0,0.4802 z"
       id="path2997-6"
       inkscape:connector-curvature="0"
       sodipodi:nodetypes="ccccccc" />
    <path
       style="fill:#fff8e1;fill-opacity:1;stroke:none"
       d="m 8.5002474,1036.3622 c -0.2768629,0 -0.5003431,0.106 -0.5002474,0.8182 l 4.949e-4,3.6818 0.9995051,0 0,-3.6818 c 0,-0.7122 -0.2228897,-0.8182 -0.4997526,-0.8182 z"
       id="rect2995"
       inkscape:connector-curvature="0"
       sodipodi:nodetypes="ssccss" />
  </g>
</svg>

<!-- Created with Inkscape (http://www.inkscape.org/) -->
<svg xmlns="http://www.w3.org/2000/svg" viewBox="0 0 32 32">
 <defs>
  <radialGradient r="24" cy="40.5" cx="24" gradientTransform="matrix(0.83333334,0,0,0.13888885,-4,1041.4039)" gradientUnits="userSpaceOnUse" id="radialGradient3098">
   <stop style="stop-color:#000;stop-opacity:1"/>
   <stop offset="1" style="stop-color:#000;stop-opacity:0.196"/>
  </radialGradient>
 </defs>
 <g transform="translate(0,-1020.3622)">
  <path d="m 16 1043.7 c -6.551 0 -12.352 0.522 -16 1.333 l 0 4 c 3.648 0.811 9.449 1.333 16 1.333 6.551 0 12.352 -0.522 16 -1.333 l 0 -4 c -3.648 -0.811 -9.449 -1.333 -16 -1.333 z" style="fill:url(#radialGradient3098);opacity:0.1;fill-opacity:1;stroke:none"/>
  <rect width="30" height="21" x="1" y="1027.36" rx="3.261" ry="3.281" style="fill:#512da8;fill-opacity:1;stroke:none"/>
  <path d="m 4.261 1027.03 c -1.807 0 -3.261 1.487 -3.261 3.333 l 0 1.333 c 0 -1.847 1.454 -3.333 3.261 -3.333 l 23.478 0 c 1.807 0 3.261 1.487 3.261 3.333 l 0 -1.333 c 0 -1.847 -1.454 -3.333 -3.261 -3.333 l -23.478 0 z" style="fill:#fff;opacity:0.2;fill-opacity:1;stroke:none"/>
  <path d="m 4.261 1032.36 5.217 0 c 7.174 -0.667 5.87 -8 10.435 -8 l 7.826 0 c 1.807 0 3.261 1.487 3.261 3.333 l 0 17.333 c 0 1.847 -1.454 3.333 -3.261 3.333 l -23.478 0 c -1.807 0 -3.261 -1.487 -3.261 -3.333 l 0 -9.333 c 0 -2 1.304 -3.333 3.261 -3.333 z" style="fill:#7e57c2;fill-opacity:1;stroke:none"/>
  <path d="m 1 1043.7 0 1.333 c 0 1.847 1.454 3.333 3.261 3.333 l 23.478 0 c 1.807 0 3.261 -1.487 3.261 -3.333 l 0 -1.333 c 0 1.847 -1.454 3.667 -3.261 3.667 l -23.478 0 c -1.807 0 -3.261 -1.82 -3.261 -3.667 z" style="fill:#000;opacity:0.15;fill-opacity:1;stroke:none"/>
  <path d="m 8.5 17 c -0.277 0 -0.5 0.1 -0.5 0.813 l 0 3.188 l -1 0 c -0.375 0 -0.375 -0.011 0 0.469 l 1.125 1.438 c 0.375 0.48 0.375 0.48 0.75 0 l 1.125 -1.438 c 0.375 -0.48 0.375 -0.469 0 -0.469 l -1 0 l 0 -3.188 c 0 -0.712 -0.223 -0.813 -0.5 -0.813 z m 4 4 c -0.277 0 -0.5 0.223 -0.5 0.5 l 0 2.5 l -7 0 l 0 -2 c 0 -0.277 -0.223 -0.5 -0.5 -0.5 c -0.277 0 -0.5 0.223 -0.5 0.5 l 0 2.5 c 0 0.139 0.055 0.253 0.156 0.344 c 0.045 0.045 0.096 0.1 0.156 0.125 c 0.073 0.031 0.163 0.031 0.25 0.031 l 7.875 0 c 0.312 0 0.563 -0.223 0.563 -0.5 c 0 -0.1 -0.038 -0.172 -0.094 -0.25 c 0.05 -0.078 0.094 -0.15 0.094 -0.25 l 0 -2.5 c 0 -0.277 -0.223 -0.5 -0.5 -0.5 z" transform="translate(0,1020.3622)" style="fill:#000;fill-opacity:0.098;stroke:none"/>
  <rect width="9" height="1" x="4" y="1043.36" rx="0.562" ry="0.5" style="fill:#fff8e1;fill-opacity:1;stroke:none"/>
  <rect rx="0.5" y="-5" x="1040.86" height="1" width="3.5" transform="matrix(0,1,-1,0,0,0)" style="fill:#fff8e1;fill-opacity:1;stroke:none"/>
  <rect transform="matrix(0,1,-1,0,0,0)" width="3.5" height="1" x="1040.36" y="-13" rx="0.5" style="fill:#fff8e1;fill-opacity:1;stroke:none"/>
  <path d="m 8.875 1042.28 c -0.375 0.48 -0.375 0.48 -0.75 0 l -1.125 -1.441 c -0.375 -0.48 -0.375 -0.48 0 -0.48 l 3 0 c 0.375 0 0.375 0 0 0.48 z" style="fill:#fff8e1;fill-opacity:1;stroke:none"/>
  <path d="m 8.5 1036.36 c -0.277 0 -0.5 0.106 -0.5 0.818 l 0 3.682 1 0 0 -3.682 c 0 -0.712 -0.223 -0.818 -0.5 -0.818 z" style="fill:#fff8e1;fill-opacity:1;stroke:none"/>
 </g>
</svg>
